icons/graph-17.svg

<svg width="16" height="17" viewBox="0 0 16 17" fill="none" xmlns="http://www.w3.org/2000/svg">
<path fill-rule="evenodd" clip-rule="evenodd" d="M3.125 3.47888C3.125 3.16822 2.87316 2.91638 2.5625 2.91638C2.25184 2.91638 2 3.16822 2 3.47888V12.8539C2 13.1645 2.25184 13.4164 2.5625 13.4164H13.4375C13.7481 13.4164 14 13.1645 14 12.8539C14 12.5432 13.7481 12.2914 13.4375 12.2914H3.125V3.47888ZM13.8352 5.37663C14.0549 5.15696 14.0549 4.8008 13.8352 4.58113C13.6156 4.36147 13.2594 4.36147 13.0398 4.58113L9.5 8.12089L7.64775 6.26863C7.42808 6.04897 7.07192 6.04897 6.85225 6.26863L4.41475 8.70613C4.19509 8.9258 4.19509 9.28196 4.41475 9.50163C4.63442 9.72128 4.99058 9.72128 5.21025 9.50163L7.25 7.46188L9.10225 9.31413C9.20774 9.41962 9.35082 9.47888 9.5 9.47888C9.64918 9.47888 9.79227 9.41962 9.89773 9.31413L13.8352 5.37663Z" fill="#272431"/>
</svg>

<svg xmlns="http://www.w3.org/2000/svg" width="16" height="17" viewBox="0 0 16 17"><path fill-rule="evenodd" d="M3.125 3.479a.563.563 0 00-1.125 0v9.375c0 .31.252.562.563.562h10.874a.563.563 0 000-1.125H3.126V3.48zm10.71 1.898a.562.562 0 10-.795-.796L9.5 8.121 7.648 6.269a.563.563 0 00-.796 0L4.415 8.706a.563.563 0 00.795.796l2.04-2.04 1.852 1.852a.563.563 0 00.796 0l3.937-3.937z"/></svg>
